X: 10073
M: C
L: 1/8
K: D
(C>E) c>GE>G :|[2 (E/=F/G) (C>E) c>GE>C || D<(dd>c) d>ed>c | A<(dd>e) =f>de>c |
[1 A<(dd>c) d>ed>B | =c>dc>G E<CG>E :|[2 d<d(=f>d) (e>c)f>d | =c>dc>G E<CG>E |]


